packages/admin/admin-icons/icons/tree-collapse-all.svg

<svg xmlns="http://www.w3.org/2000/svg" width="16" height="16" viewBox="0 0 16 16"><path fill="#242424" fill-rule="evenodd" d="M13.5,5 C14.8807119,5 16,6.11928813 16,7.5 L16,13.5 C16,14.8807119 14.8807119,16 13.5,16 L7.5,16 C6.11928813,16 5,14.8807119 5,13.5 L5,7.5 C5,6.11928813 6.11928813,5 7.5,5 L13.5,5 Z M13.5,6 L7.5,6 C6.67157288,6 6,6.67157288 6,7.5 L6,7.5 L6,13.5 C6,14.3284271 6.67157288,15 7.5,15 L7.5,15 L13.5,15 C14.3284271,15 15,14.3284271 15,13.5 L15,13.5 L15,7.5 C15,6.67157288 14.3284271,6 13.5,6 L13.5,6 Z M11,2.5 C12.0252272,2.5 12.9063162,3.11712907 13.2920545,4.00017484 L12.1179642,3.99990047 C11.8776389,3.73143567 11.5420336,3.55004797 11.1643068,3.50889581 L11,3.5 L5,3.5 C4.22030388,3.5 3.57955132,4.09488808 3.50686658,4.85553999 L3.5,5 L3.5,11 C3.5,11.4442019 3.69308356,11.8433067 3.99990047,12.1179642 L4.00017484,13.2920545 C3.11712907,12.9063162 2.5,12.0252272 2.5,11 L2.5,5 C2.5,3.61928813 3.61928813,2.5 5,2.5 L11,2.5 Z M12.5,10 C12.7761424,10 13,10.2238576 13,10.5 C13,10.7761424 12.7761424,11 12.5,11 L12.5,11 L8.5,11 L8.41012437,10.9919443 C8.17687516,10.9496084 8,10.7454599 8,10.5 C8,10.2238576 8.22385763,10 8.5,10 L8.5,10 Z M8.5,-2.84217094e-14 C9.52522718,-2.86100406e-14 10.4063162,0.617129067 10.7920545,1.50017484 L9.61796416,1.49990047 C9.37763885,1.23143567 9.04203358,1.05004797 8.6643068,1.00889581 L8.5,1 L2.5,1 C1.72030388,1 1.07955132,1.59488808 1.00686658,2.35553999 L1,2.5 L1,8.5 C1,8.94420187 1.19308356,9.34330667 1.49990047,9.61796416 L1.50017484,10.7920545 C0.617129067,10.4063162 8.4502504e-14,9.52522718 8.43769499e-14,8.5 L8.43769499e-14,2.5 C8.42078614e-14,1.11928813 1.11928813,-2.81680768e-14 2.5,-2.84217094e-14 L8.5,-2.84217094e-14 Z"/></svg>

<svg width="16" height="16" fill="none" viewBox="0 0 16 16">
  <path fill="#242424" fill-rule="evenodd" d="M12.5 10.001a.5.5 0 1 1 0 1h-4a.5.5 0 0 1 0-1h4Z M13.5 5.001a2.5 2.5 0 0 1 2.5 2.5v6a2.5 2.5 0 0 1-2.5 2.5h-6a2.5 2.5 0 0 1-2.5-2.5v-6a2.5 2.5 0 0 1 2.5-2.5h6Zm0 1h-6a1.5 1.5 0 0 0-1.5 1.5v6a1.5 1.5 0 0 0 1.5 1.5h6a1.5 1.5 0 0 0 1.5-1.5v-6a1.5 1.5 0 0 0-1.5-1.5Z M11 2.501a2.5 2.5 0 0 1 2.292 1.5h-1.174A1.496 1.496 0 0 0 11 3.5H5A1.5 1.5 0 0 0 3.5 5v6c0 .444.193.843.5 1.118v1.174A2.5 2.5 0 0 1 2.5 11V5A2.5 2.5 0 0 1 5 2.5h6Z M8.5.001a2.5 2.5 0 0 1 2.292 1.5H9.618A1.496 1.496 0 0 0 8.5 1h-6A1.5 1.5 0 0 0 1 2.5v6c0 .444.193.843.5 1.118v1.174A2.5 2.5 0 0 1 0 8.501v-6a2.5 2.5 0 0 1 2.5-2.5h6Z" clip-rule="evenodd"/>
</svg>
